X: 498
T: Tan qinglang
%%abc-version 2.0
%%abcx-abcm2ps-target-version 5.9.1 (29 Sep 2008)
%%abc-creator hum2abc beta
%%abcx-conversion-date 2013/10/02 07:52:30
%%abc-edited-by Helmut Schaffrath
%%humdrum-veritas 2483136526
%%humdrum-veritas-data 4158237620
%%continueall 1
%%barnumbers 0
L: 1/8
M: 4/4
K: Bb
c'2c' d'2<f2g [I:setbarnb 1]| 
c'2c' d'c'4 | 
e'2>f'2c'2c' g | 
f g f ef2z2 | 
c' c' g b b e' c' b | 
g2b g f ec2 | 
f f d c B c f d | 
c c c Bc2z2 |]  



